app/dist/common/images/beijing-kawin-technology-share.svg

<svg height="18" viewBox="0 0 18 18" width="18" xmlns="http://www.w3.org/2000/svg"><path d="m0 0h18v18h-18z" fill="#f0f3fa"/><path d="m8.7 4-1.58 10h-2.12l1.57-10zm5.3 0-4.24 5.12-2.4 2.49-.03-2.38 1.57-2.15 2.35-3.08zm-4.1 10-1.57-4.59 1.77-1.31 2.23 5.9z" fill="#009b90"/></svg>

<!-- by TradingView --><svg width="18" height="18" viewBox="0 0 18 18" xmlns="http://www.w3.org/2000/svg"><path fill="#F0F3FA" d="M0 0h18v18H0z"/><path d="M8.7 4 7.12 14H5L6.57 4H8.7ZM14 4 9.76 9.12l-2.4 2.49-.03-2.38L8.9 7.08 11.25 4H14ZM9.9 14 8.33 9.41 10.1 8.1 12.33 14H9.9Z" fill="#009B90"/></svg>
